app/src/icons/delete.svg

<svg fill="none" viewBox=".94 .72 12.11 12.11" xmlns="http://www.w3.org/2000/svg"><path d="m6.99414 12.8223c-.83594 0-1.61914-.1582-2.34961-.4746-.73047-.3125-1.37305-.7461-1.92773-1.3008-.55469-.5508-.99024-1.19143-1.30664-1.9219-.3125-.73438-.468754-1.51953-.468754-2.35547s.156254-1.61914.468754-2.34961c.3164-.73437.75195-1.3789 1.30664-1.93359.55468-.55469 1.19726-.98828 1.92773-1.30078.73047-.312503 1.51367-.468753 2.34961-.468753s1.61914.15625 2.34961.468753c.73435.3125 1.37895.74609 1.93355 1.30078.5547.55469.9883 1.19922 1.3008 1.93359.3164.73047.4746 1.51367.4746 2.34961s-.1582 1.62109-.4746 2.35547c-.3125.73047-.7461 1.3711-1.3008 1.9219-.5546.5547-1.1992.9883-1.93355 1.3008-.73047.3164-1.51367.4746-2.34961.4746zm0-1.1953c.67188 0 1.30078-.127 1.88672-.3809.58594-.25 1.10156-.5977 1.54684-1.043.4493-.44529.7989-.96091 1.0489-1.54685s.375-1.21484.375-1.88672c0-.67187-.125-1.30078-.375-1.88672-.25-.58984-.5996-1.10547-1.0489-1.54687-.44528-.44532-.9609-.79297-1.54684-1.04297-.58594-.25391-1.21484-.38086-1.88672-.38086-.66797 0-1.29687.12695-1.88672.38086-.58594.25-1.10156.59765-1.54687 1.04297-.44532.4414-.79493.95703-1.04883 1.54687-.25.58594-.375 1.21485-.375 1.88672 0 .67188.125 1.30078.375 1.88672.2539.58594.60351 1.10156 1.04883 1.54685.44531.4453.96093.793 1.54687 1.043.58985.2539 1.21875.3809 1.88672.3809zm-2.2207-4.30083c-.17578 0-.32032-.04687-.4336-.14062-.11328-.09766-.16992-.23243-.16992-.4043 0-.16797.05469-.30273.16406-.4043.11329-.10156.25977-.15234.43946-.15234h4.4414c.1836 0 .33008.05078.43946.15234.10937.10157.16406.23633.16406.4043 0 .17187-.05664.30664-.16992.4043-.11328.09375-.25782.14062-.4336.14062z" fill="#000"/></svg>

<svg width="14" height="13" viewBox="0 0 14 13" fill="none" xmlns="http://www.w3.org/2000/svg">
<path d="M6.99414 12.8223C6.1582 12.8223 5.375 12.6641 4.64453 12.3477C3.91406 12.0352 3.27148 11.6016 2.7168 11.0469C2.16211 10.4961 1.72656 9.85547 1.41016 9.125C1.09766 8.39062 0.941406 7.60547 0.941406 6.76953C0.941406 5.93359 1.09766 5.15039 1.41016 4.41992C1.72656 3.68555 2.16211 3.04102 2.7168 2.48633C3.27148 1.93164 3.91406 1.49805 4.64453 1.18555C5.375 0.873047 6.1582 0.716797 6.99414 0.716797C7.83008 0.716797 8.61328 0.873047 9.34375 1.18555C10.0781 1.49805 10.7227 1.93164 11.2773 2.48633C11.832 3.04102 12.2656 3.68555 12.5781 4.41992C12.8945 5.15039 13.0527 5.93359 13.0527 6.76953C13.0527 7.60547 12.8945 8.39062 12.5781 9.125C12.2656 9.85547 11.832 10.4961 11.2773 11.0469C10.7227 11.6016 10.0781 12.0352 9.34375 12.3477C8.61328 12.6641 7.83008 12.8223 6.99414 12.8223ZM6.99414 11.627C7.66602 11.627 8.29492 11.5 8.88086 11.2461C9.4668 10.9961 9.98242 10.6484 10.4277 10.2031C10.877 9.75781 11.2266 9.24219 11.4766 8.65625C11.7266 8.07031 11.8516 7.44141 11.8516 6.76953C11.8516 6.09766 11.7266 5.46875 11.4766 4.88281C11.2266 4.29297 10.877 3.77734 10.4277 3.33594C9.98242 2.89062 9.4668 2.54297 8.88086 2.29297C8.29492 2.03906 7.66602 1.91211 6.99414 1.91211C6.32617 1.91211 5.69727 2.03906 5.10742 2.29297C4.52148 2.54297 4.00586 2.89062 3.56055 3.33594C3.11523 3.77734 2.76562 4.29297 2.51172 4.88281C2.26172 5.46875 2.13672 6.09766 2.13672 6.76953C2.13672 7.44141 2.26172 8.07031 2.51172 8.65625C2.76562 9.24219 3.11523 9.75781 3.56055 10.2031C4.00586 10.6484 4.52148 10.9961 5.10742 11.2461C5.69727 11.5 6.32617 11.627 6.99414 11.627ZM4.77344 7.32617C4.59766 7.32617 4.45312 7.2793 4.33984 7.18555C4.22656 7.08789 4.16992 6.95312 4.16992 6.78125C4.16992 6.61328 4.22461 6.47852 4.33398 6.37695C4.44727 6.27539 4.59375 6.22461 4.77344 6.22461H9.21484C9.39844 6.22461 9.54492 6.27539 9.6543 6.37695C9.76367 6.47852 9.81836 6.61328 9.81836 6.78125C9.81836 6.95312 9.76172 7.08789 9.64844 7.18555C9.53516 7.2793 9.39062 7.32617 9.21484 7.32617H4.77344Z" fill="black" fill-opacity="0.4"/>
</svg>
